shader_type canvas_item;

void vertex() {
	// Called for every vertex the material is visible on.
	if(VERTEX.y <= 10.0)
		VERTEX += vec2(5.0 * sin(0.25 * TIME), 0.0);
}

void fragment() {
	// Called for every pixel the material is visible on.
}

//void light() {
	// Called for every pixel for every light affecting the CanvasItem.
	// Uncomment to replace the default light processing function with this one.
//}
